img/why1.svg

<svg width="101" height="81" viewBox="0 0 101 81" fill="none" xmlns="http://www.w3.org/2000/svg">
<path d="M88.5038 64.6465L88.692 64.4028C91.6475 60.5756 93.2518 55.8771 93.254 51.0415L88.5038 64.6465ZM88.5038 64.6465L88.7215 64.8642M88.5038 64.6465L88.7215 64.8642M88.7215 64.8642L99.5669 75.7112C99.5677 75.7121 99.5686 75.7129 99.5694 75.7138C100.016 76.1829 100.263 76.8081 100.255 77.4561C100.248 78.1054 99.9868 78.726 99.5277 79.1852C99.0685 79.6443 98.4479 79.9055 97.7987 79.9128C97.1506 79.9201 96.5253 79.6739 96.0562 79.2268C96.0554 79.226 96.0545 79.2252 96.0537 79.2243L85.2084 68.3773L84.9906 68.1595L84.7469 68.3479C82.3526 70.1984 79.6 71.5315 76.6635 72.2625C73.7271 72.9936 70.6708 73.1067 67.6883 72.5948C64.7058 72.0829 61.8622 70.957 59.3376 69.2885C56.813 67.6201 54.6625 65.4454 53.0224 62.9024L52.9069 62.7234L52.695 62.7436C52.3081 62.7806 51.915 62.7998 51.5187 62.7998C49.761 62.7999 48.0225 62.4335 46.4143 61.724C44.8061 61.0146 43.3636 59.9776 42.1786 58.6793C40.9937 57.381 40.0925 55.8499 39.5325 54.1837C38.9725 52.5176 38.766 50.753 38.9263 49.0026C39.0866 47.2522 39.61 45.5544 40.4632 44.0177C41.3165 42.4809 42.4807 41.1389 43.8817 40.0774C45.2827 39.0158 46.8896 38.258 48.5999 37.8524C50.3102 37.4467 52.0863 37.4021 53.8148 37.7214L54.0232 37.7599L54.1539 37.593C55.5139 35.8563 57.1264 34.3331 58.9376 33.0741L59.0878 32.9696V32.7867V9.00777M88.7215 64.8642L71.3857 29.1748M71.3857 29.1748H71.3854C69.0884 29.1731 66.8055 29.5348 64.6216 30.2467L64.1631 30.3961V29.9139V9.00736V9.00721C64.1636 7.83329 63.9154 6.67258 63.4348 5.60152C62.9543 4.53046 62.2523 3.57335 61.3751 2.79323C60.4978 2.0131 59.4653 1.42765 58.3455 1.07544C57.2256 0.723221 56.0439 0.612231 54.878 0.749775L54.8777 0.749816C47.6279 1.59775 41.666 3.04009 35.4329 4.54806C33.196 5.08922 30.9242 5.63884 28.5453 6.17246L28.5453 6.17247C24.3702 7.10867 21.169 10.2476 21.169 14.4345V46.1408V46.7969L20.624 46.4315C18.5468 45.0384 16.1014 44.2961 13.6003 44.2995H13.6C10.247 44.3012 7.0318 45.6339 4.66085 48.0049C2.28994 50.3758 0.957214 53.5909 0.955469 56.9439C0.956783 60.297 2.28937 63.5123 4.66037 65.8833C7.03137 68.2543 10.2468 69.5869 13.5999 69.5882C16.8937 69.5869 20.0572 68.3008 22.4176 66.0034C24.7768 63.7071 26.1478 60.5814 26.2393 57.2905V14.4345V14.4344C26.2394 13.6405 26.5312 12.8744 27.0592 12.2816C27.5838 11.6927 28.305 11.3156 29.0876 11.2208L55.4413 5.79341L55.456 5.79038L55.4709 5.78863C55.9253 5.73503 56.3858 5.77834 56.8222 5.9157C57.2586 6.05305 57.6609 6.28133 58.0027 6.5855C58.3444 6.88966 58.6178 7.2628 58.8049 7.68032C58.9919 8.09784 59.0884 8.55027 59.0878 9.00777M71.3857 29.1748C83.4426 29.1748 93.254 38.9846 93.254 51.0414L71.3857 29.1748ZM59.0878 9.00777L58.7378 9.00736M59.0878 9.00777V9.00736H58.7378M58.7378 9.00736C58.7383 8.59931 58.6523 8.1958 58.4855 7.82342C58.3187 7.45103 58.0748 7.11823 57.77 6.84694C57.4652 6.57566 57.1064 6.37206 56.7171 6.24955C56.3279 6.12704 55.9172 6.08842 55.5119 6.13622L58.7378 32.7867V9.00736ZM6.03075 56.9437V56.944C6.03167 58.9511 6.8294 60.8758 8.24866 62.2951C9.66791 63.7143 11.5926 64.512 13.5997 64.513L13.5999 64.163L13.6 64.513C15.6071 64.512 17.5318 63.7143 18.9511 62.2951C20.3703 60.8758 21.168 58.9511 21.169 56.944V56.9437C21.168 54.9366 20.3703 53.0119 18.9511 51.5927C17.5318 50.1734 15.6071 49.3757 13.6 49.3748H13.5997C11.5926 49.3757 9.66791 50.1734 8.24866 51.5927C6.8294 53.0119 6.03167 54.9366 6.03075 56.9437ZM51.005 43.1144L51.216 42.5719L50.638 42.6399C48.7963 42.8564 47.0981 43.7411 45.8654 45.1263C44.6326 46.5115 43.9509 48.3009 43.9496 50.1552L44.2996 50.1554L43.9496 50.1555C43.9501 51.8945 44.5489 53.5803 45.6455 54.9299C46.7421 56.2795 48.2698 57.2107 49.9718 57.5669L50.5416 57.6862L50.3797 57.127C49.0444 52.5141 49.2641 47.59 51.005 43.1144ZM61.9955 65.0921C64.7744 66.949 68.0415 67.9401 71.3837 67.9402L87.9327 51.0432L88.2827 51.0432C88.2827 51.0431 88.2827 51.043 88.2827 51.0429C88.283 47.7006 87.2922 44.4335 85.4356 41.6544C83.5789 38.8752 80.9398 36.709 77.8521 35.4297C74.7643 34.1504 71.3664 33.8155 68.0883 34.4674C64.8102 35.1192 61.799 36.7285 59.4355 39.0918C57.072 41.455 55.4624 44.4661 54.8102 47.7441C54.158 51.0222 54.4926 54.42 55.7716 57.508C57.0505 60.5959 59.2165 63.2352 61.9955 65.0921Z" fill="black" stroke="white" stroke-width="0.7"/>
<g style="mix-blend-mode:multiply">
<circle cx="20" cy="28.738" r="10.5" fill="url(#paint0_linear_204_2)"/>
</g>
<defs>
<linearGradient id="paint0_linear_204_2" x1="11.4854" y1="14.1611" x2="33.5267" y2="15.5478" gradientUnits="userSpaceOnUse">
<stop stop-color="#0085FF"/>
<stop offset="1" stop-color="#591FFF"/>
</linearGradient>
</defs>
</svg>

<svg width="101" height="81" fill="none" xmlns="http://www.w3.org/2000/svg"><path d="M88.504 64.647l.188-.244a21.877 21.877 0 004.562-13.362l-4.75 13.606zm0 0l.218.217m-.218-.218l.218.218m0 0l10.845 10.847.002.003a2.484 2.484 0 01-1.77 4.199 2.485 2.485 0 01-1.743-.686l-.002-.003-10.846-10.847-.217-.218-.244.189a21.85 21.85 0 01-31.725-5.446l-.115-.179-.212.02a12.644 12.644 0 111.12-25.022l.208.039.13-.167a22.09 22.09 0 014.785-4.519l.15-.104V9.007m29.634 55.857l-17.336-35.69m0 0h0c-2.298 0-4.58.36-6.764 1.073l-.459.15V9.006v0A8.31 8.31 0 0054.878.75h0c-7.25.848-13.212 2.29-19.445 3.798a423.63 423.63 0 01-6.888 1.624h0c-4.175.937-7.376 4.076-7.376 8.262v32.363l-.545-.365a12.58 12.58 0 00-7.024-2.133h0A12.65 12.65 0 00.955 56.945 12.65 12.65 0 0013.6 69.588a12.65 12.65 0 0012.64-12.297V14.434v0a3.237 3.237 0 012.848-3.214L55.44 5.793l.015-.003.015-.001a3.237 3.237 0 013.617 3.219m12.298 20.167c12.057 0 21.868 9.81 21.868 21.866L71.386 29.175zM59.088 9.008h-.35m.35 0v0h-.35m0 0a2.888 2.888 0 00-3.226-2.872l3.226 26.65V9.008zM6.03 56.943v0a7.573 7.573 0 007.569 7.569v-.35.35a7.573 7.573 0 007.569-7.569v0a7.573 7.573 0 00-7.569-7.57h0a7.572 7.572 0 00-7.57 7.57zm44.974-13.83l.211-.542-.578.068a7.572 7.572 0 00-6.688 7.515h.35-.35a7.574 7.574 0 006.022 7.412l.57.12-.162-.56a21.875 21.875 0 01.625-14.013zm10.99 21.978a16.899 16.899 0 009.389 2.848l16.549-16.897h.35s0 0 0 0a16.898 16.898 0 10-26.288 14.05z" fill="#000" stroke="#fff" stroke-width=".7"/><circle cx="20" cy="28.738" r="10.5" fill="url(#paint0_linear_204_2)"/><defs><linearGradient id="paint0_linear_204_2" x1="11.485" y1="14.161" x2="33.527" y2="15.548" gradientUnits="userSpaceOnUse"><stop stop-color="#0085FF"/><stop offset="1" stop-color="#591FFF"/></linearGradient></defs></svg>
